X:1
T:Dr. MacPhail's Reel  "CYMRU"
M:C
L:1/8
Q:80
C:Andrew Bain
S:Reel
K:HP
[| a | \
{cd}c2{gef}eA{gAGAG}A2{g}fe | \
{g}f/2a3/2e3/2{g}f/2a3/2e/2{g}f/2a3/2 | \
{cd}c2{gef}eA{gAGAG}A2{g}fe |
{g}f/2a3/2e3/2{g}f/2a3/2A/2{gcd}c3/2B/2 | | \
{cd}c2{gef}eA{gAGAG}A2{g}fe | \
{g}f/2a3/2e3/2{g}f/2a3/2e/2{g}f/2a3/2 |
{cd}c2{g}e3/2f/2{g}A3/2c/2{g}f3/2e/2 | \
{g}f/2a3/2e3/2{g}f/2a3/2A/2{gcd}c3/2B/2|]  | \
{g}c/2e3/2{A}e3/2a/2c/2e3/2a3/2f/2 |
{gef}e3/2c/2{G}c3/2e/2{g}f/2a3/2{fg}f3/2e/2 | \
{g}c/2e3/2{A}e3/2a/2c/2e3/2a3/2f/2 | \
{gfg}f3/2e/2{A}e3/2f/2a3/2A/2{gcd}c3/2B/2| |
{g}c/2e3/2{A}e3/2a/2c/2e3/2a3/2f/2 | \
{gef}e3/2c/2{G}c3/2e/2{g}f/2a3/2{fg}f3/2e/2 | \
{gcd}c2{g}e3/2f/2{g}A3/2c/2{g}f3/2e/2 |
{g}f/2a3/2e3/2{g}f/2a3/2A/2{gcd}c3/2B/2|]  | \
{g}A3/2e/2{A}e3/2c/2{g}e3/2f/2{g}c/2e3/2 | \
{g}B3/2f/2{e}f3/2e/2{g}f/2a3/2{fg}f3/2e/2 |
{g}A3/2e/2{A}e3/2c/2{g}e3/2f/2{g}c/2e3/2 | \
{g}f/2a3/2e3/2{g}f/2a3/2A/2{gcd}c3/2B/2 | | \
{g}A3/2e/2{A}e3/2c/2{g}e3/2f/2{g}c/2e3/2 |
{g}B3/2f/2{e}f3/2e/2{g}f/2a3/2{fg}f3/2e/2 | \
{g}A3/2e/2{A}e3/2c/2{g}e3/2f/2{g}c/2e3/2 | \
{g}f/2a3/2e3/2{g}f/2a3/2A/2{gcd}c3/2B/2|] |
{gcd}c2{g}e/2a3/2d/2f3/2{g}c/2e3/2 | \
{Gdc}d2{g}f/2a3/2f/2a3/2{fg}f3/2e/2 | \
{gcd}c2{g}e/2a3/2d/2f3/2{g}c/2e3/2 |
{g}f/2a3/2e3/2{g}f/2a3/2A/2{gcd}c3/2B/2 | | \
{gcd}c2{g}e/2a3/2d/2f3/2{g}c/2e3/2 | \
{Gdc}d2{g}f/2a3/2f/2a3/2{fg}f3/2e/2 |
{gcd}c2{g}e3/2f/2{g}A3/2c/2{g}f3/2e/2 | \
{g}f/2a3/2e3/2{g}f/2a3/2A/2{gcd}c3/2B/2|]
